src/assets/icons/shapes,fancy,filled-octagon_alt.svg

<svg width="48" height="48" viewBox="0 0 48 48" fill="none" xmlns="http://www.w3.org/2000/svg">
<path d="M13.5603 7.4846C14.7537 6.25647 15.3504 5.64241 16.0994 5.3268C16.8484 5.01119 17.7039 5.013 19.4151 5.01662C22.3088 5.02274 25.7864 5.0173 28.3582 5.01105C30.1603 5.00668 31.0614 5.00449 31.8059 5.31548C32.5504 5.62648 33.2221 6.30952 34.5656 7.67562C36.4239 9.56534 38.7697 11.8639 40.5154 13.5603C41.7435 14.7537 42.3576 15.3504 42.6732 16.0994C42.9888 16.8484 42.987 17.704 42.9834 19.4151C42.9771 22.4047 42.9831 26.0177 42.9896 28.611C42.9938 30.2997 42.9959 31.144 42.6803 31.8935C42.3646 32.6429 41.7543 33.2359 40.5337 34.422C38.7861 36.1201 36.4302 38.4283 34.5649 40.3251C33.222 41.6908 32.5506 42.3736 31.806 42.6846C31.0615 42.9956 30.1607 42.9934 28.3592 42.9891C25.8623 42.9831 22.511 42.9778 19.6688 42.9831C17.8434 42.9865 16.9307 42.9881 16.1869 42.6773C15.4431 42.3664 14.7675 41.6796 13.4163 40.306C11.5608 38.4197 9.22459 36.1306 7.48458 34.4398C6.25646 33.2463 5.6424 32.6496 5.3268 31.9006C5.01119 31.1517 5.013 30.2961 5.01662 28.5849C5.02274 25.6913 5.0173 22.2136 5.01105 19.6418C5.00668 17.8397 5.00449 16.9387 5.31548 16.1941C5.62648 15.4496 6.30953 14.7779 7.67563 13.4344C9.56535 11.5761 11.8639 9.23029 13.5603 7.4846Z" fill="black"/>
</svg>

<svg xmlns="http://www.w3.org/2000/svg" width="48" height="48" fill="none" viewBox="0 0 48 48">
  <path fill="#000" d="M13.56 7.485c1.194-1.229 1.79-1.843 2.54-2.158.748-.316 1.604-.314 3.315-.31 2.894.006 6.371 0 8.943-.006 1.802-.004 2.703-.007 3.448.304.744.311 1.416.995 2.76 2.36a400.485 400.485 0 005.95 5.885c1.227 1.194 1.842 1.79 2.157 2.54.316.748.314 1.604.31 3.315-.006 2.99 0 6.603.007 9.196.004 1.689.006 2.533-.31 3.282-.315.75-.926 1.343-2.146 2.529a401.32 401.32 0 00-5.97 5.903c-1.342 1.366-2.013 2.049-2.758 2.36-.745.31-1.645.308-3.447.304-2.497-.006-5.848-.011-8.69-.006-1.826.004-2.738.005-3.482-.306-.744-.31-1.42-.997-2.77-2.371a401.253 401.253 0 00-5.932-5.866c-1.229-1.194-1.843-1.79-2.158-2.54-.316-.748-.314-1.604-.31-3.315.006-2.894 0-6.371-.006-8.943-.004-1.802-.007-2.703.304-3.448.311-.744.995-1.416 2.36-2.76a400.531 400.531 0 005.885-5.95z"/>
</svg>
